rusokon/images/icon-feat-10.svg

<svg xmlns="http://www.w3.org/2000/svg" width="52" height="52" viewBox="0 0 52 52"><defs><style>.cls-1{fill:#a2a2a2;}.cls-2{fill:#ff1a46;}</style></defs><title>icon-feat-10</title><path class="cls-1" d="M51 51h-51v-51h51zm-50-1h49v-49h-49z"/><path class="cls-2" d="M38.6 20.8h-3.2v-2.8a9.9 9.9 0 0 0-19.8 0v2.8h-3.2a.86.86 0 0 0-.8.8v20.6a.86.86 0 0 0 .8.8h26.2a.86.86 0 0 0 .8-.8v-20.7a.77.77 0 0 0-.8-.7zm-13.1-11.2a8.39 8.39 0 0 1 8.4 8.4v2.8h-16.8v-2.8a8.45 8.45 0 0 1 8.4-8.4zm12.3 12.7v19.1h-24.6v-19.1zM21.6 36.7a.88.88 0 0 0 .1.7.71.71 0 0 0 .6.3h6.3a.71.71 0 0 0 .6-.3.88.88 0 0 0 .1-.7l-1.4-3.9a3.9 3.9 0 0 0-2.5-6.9 4 4 0 0 0-3.9 3.9 3.89 3.89 0 0 0 1.4 3zm3.9-9.2a2.43 2.43 0 0 1 2.4 2.4 2.35 2.35 0 0 1-1.2 2.1.69.69 0 0 0-.3.9l1.2 3.4h-4.2l1.2-3.4a.81.81 0 0 0-.3-.9 2.44 2.44 0 0 1-1.2-2.1 2.37 2.37 0 0 1 2.4-2.4z"/></svg>

<svg id="Layer_1" data-name="Layer 1" xmlns="http://www.w3.org/2000/svg" width="52" height="52" viewBox="0 0 52 52"><defs><style>.cls-1{fill:#a2a2a2;}.cls-2{fill:#ff1a46;}</style></defs><title>icon-feat-10</title><path class="cls-1" d="M51,51H0V0H51ZM1,50H50V1H1Z"/><path class="cls-2" d="M38.6,20.8H35.4V18a9.9,9.9,0,0,0-19.8,0v2.8H12.4a.86.86,0,0,0-.8.8V42.2a.86.86,0,0,0,.8.8H38.6a.86.86,0,0,0,.8-.8V21.5A.77.77,0,0,0,38.6,20.8ZM25.5,9.6A8.39,8.39,0,0,1,33.9,18v2.8H17.1V18A8.45,8.45,0,0,1,25.5,9.6ZM37.8,22.3V41.4H13.2V22.3Z"/><path class="cls-2" d="M21.6,36.7a.88.88,0,0,0,.1.7.71.71,0,0,0,.6.3h6.3a.71.71,0,0,0,.6-.3.88.88,0,0,0,.1-.7l-1.4-3.9a3.9,3.9,0,0,0-2.5-6.9,4,4,0,0,0-3.9,3.9,3.89,3.89,0,0,0,1.4,3Zm3.9-9.2a2.43,2.43,0,0,1,2.4,2.4A2.35,2.35,0,0,1,26.7,32a.69.69,0,0,0-.3.9l1.2,3.4H23.4l1.2-3.4a.81.81,0,0,0-.3-.9,2.44,2.44,0,0,1-1.2-2.1A2.37,2.37,0,0,1,25.5,27.5Z"/></svg>
